X:87
T:The Girl With the Blue Dress On
M: 2/4
K: G
Bc | "G"d2Bd "D7"c2Ac | "G"B2G2 GFGB | "D7"A2F2 FEFG | "G"A2G2 G2Bc |
 "G"d2Bd "D7"c2Ac | "G"B2G2 GFGB | "D7"A2F2 FEFG | "G"A2G2 G2 :|
|: z2 | "G"G2Bd g3f | "Am"f2e2 e2z2 | "D7"D2FA f3e | "G"e2d2 d2z2|
 "G"G2Bd "Em"g3f | "Am"f2e2 "A"e3g | "D7"f2a2 e2f2 | "G"g4-g2 :|
